static/assets/img/icons/theme/map/marker-1.svg

<svg height="24" viewBox="0 0 24 24" width="24" xmlns="http://www.w3.org/2000/svg"><g fill="none" fill-rule="evenodd"><path d="m0 0h24v24h-24z" opacity="0"/><path d="m5 10.5c0-4.5 3-7.5 7.5-7.5s7.5 3.75 7.5 7.5c0 2.3325623-2.1763387 5.53566-6.529016 9.6092932-.5555822.5199645-1.4124786.5415399-1.9935285.0501993-4.31830368-3.6516612-6.4774555-6.871492-6.4774555-9.6594925zm7.5 1.5c1.3807119 0 2.5-1.1192881 2.5-2.5 0-1.38071187-1.1192881-2.5-2.5-2.5s-2.5 1.11928813-2.5 2.5c0 1.3807119 1.1192881 2.5 2.5 2.5z" fill="#000" fill-rule="nonzero"/></g></svg>

<svg width="24px" height="24px" viewBox="0 0 24 24" version="1.1" xmlns="http://www.w3.org/2000/svg" xmlns:xlink="http://www.w3.org/1999/xlink">
    <title>Icon For Marker#1</title>
    <g stroke="none" stroke-width="1" fill="none" fill-rule="evenodd">
        <rect opacity="0" x="0" y="0" width="24" height="24"></rect>
        <path d="M5,10.5 C5,6 8,3 12.5,3 C17,3 20,6.75 20,10.5 C20,12.8325623 17.8236613,16.03566 13.470984,20.1092932 C12.9154018,20.6292577 12.0585054,20.6508331 11.4774555,20.1594925 C7.15915182,16.5078313 5,13.2880005 5,10.5 Z M12.5,12 C13.8807119,12 15,10.8807119 15,9.5 C15,8.11928813 13.8807119,7 12.5,7 C11.1192881,7 10,8.11928813 10,9.5 C10,10.8807119 11.1192881,12 12.5,12 Z" fill="#000000" fill-rule="nonzero"></path>
    </g>
</svg>
